WeatherApp/ClientApp/src/assets/icons/search.svg

<svg width="32" height="32" viewBox="0 0 32 32" fill="none" xmlns="http://www.w3.org/2000/svg">
<g clip-path="url(#clip0)">
<rect x="-293" y="-90" width="364" height="1181" fill="white"/>
<path d="M22.6542 18.5939H21.5564L21.1672 18.1954C22.5292 16.5129 23.3491 14.3285 23.3491 11.9522C23.3491 6.65361 19.305 2.35864 14.316 2.35864C9.3269 2.35864 5.28284 6.65361 5.28284 11.9522C5.28284 17.2508 9.3269 21.5458 14.316 21.5458C16.5534 21.5458 18.6102 20.675 20.1944 19.2286L20.5697 19.6418V20.8078L27.5182 28.1727L29.5889 25.9736L22.6542 18.5939ZM14.316 18.5939C10.8556 18.5939 8.06226 15.6273 8.06226 11.9522C8.06226 8.27714 10.8556 5.31051 14.316 5.31051C17.7763 5.31051 20.5697 8.27714 20.5697 11.9522C20.5697 15.6273 17.7763 18.5939 14.316 18.5939Z" fill="#727070"/>
</g>
<defs>
<clipPath id="clip0">
<rect x="-293" y="-90" width="364" height="1181" fill="white"/>
</clipPath>
</defs>
</svg>

<svg xmlns="http://www.w3.org/2000/svg" width="32" height="32" fill="none" xmlns:v="https://vecta.io/nano"><g clip-path="url(#A)"><path fill="#fff" d="M-293-90H71v1181h-364z"/><path d="M22.654 18.594h-1.098l-.39-.4c1.362-1.683 2.182-3.867 2.182-6.243 0-5.3-4.044-9.594-9.033-9.594s-9.033 4.295-9.033 9.594 4.044 9.594 9.033 9.594c2.237 0 4.294-.87 5.878-2.317l.375.413v1.166l6.948 7.365 2.07-2.2-6.935-7.38zm-8.338 0c-3.46 0-6.254-2.967-6.254-6.642s2.793-6.642 6.254-6.642 6.254 2.967 6.254 6.642-2.793 6.642-6.254 6.642z" fill="#727070"/></g><defs><clipPath id="A"><path fill="#fff" d="M-293-90H71v1181h-364z"/></clipPath></defs></svg>
